!!!COM: Arthur Honegger
!!!OTL: [T605_Hon-w35p6-7m3-1h6m1-5]
**kern	**kern	**kern	**kern	**kern
*part5	*part4	*part3	*part2	*part1
*staff5	*staff4	*staff3	*staff2	*staff1
*I"Contrabass	*I"Violoncello	*I"Viola	*I"Violin II	*I"Violin I
*I'Cb.	*I'Vc.	*I'Vla.	*I'Vln. II	*I'Vln. I
!!pagebreak:original
*clefF4	*clefF4	*clefC3	*clefG2	*clefG2
*Trd0c0	*	*	*	*
*k[]	*k[]	*k[]	*k[]	*k[]
*C:	*C:	*C:	*C:	*C:
*M4/4	*M4/4	*M4/4	*M4/4	*M4/4
=1	=1	=1	=1	=1
!	!	!	!	!LO:TX:t=[half]=66
!LO:TX:b:t=[f]	!LO:TX:b:t=[f]	!LO:TX:b:t=[f]	!LO:TX:b:t=[f]	!LO:TX:b:t=[f]
8c#X	8c#X	8dL 8a	8a 8ff#X	4aaan^
8r	8r	16r	8r	.
.	.	16dJk	.	.
4a^	4A^	12aL	8.r	4fff#X
.	.	12g#X	.	.
.	.	12f#XJ	.	.
.	.	.	16cc#X	.
4f#X	4F#X	8ddL	12ggL	4ccc#X
.	.	.	12aa	.
.	.	16r	.	.
.	.	.	12bb-XJ	.
.	.	16dJk	.	.
*	*	*Xtuplet	*	*
4c#	4C#X	12aL	8cc#L	4aaa^
.	.	12g#	.	.
.	.	.	16r	.
.	.	12f#J	.	.
.	.	.	16ccc#XJk	.
=2	=2	=2	=2	=2
*	*	*	*Xtuplet	*
4a^	4A^	8ddL	12ggL	4fff#X
.	.	.	12aa	.
.	.	16r	.	.
.	.	.	12bb-XJ	.
.	.	16dJk	.	.
4f#X	4F#X	12aL	8cc#XL	4dddn
.	.	12g#X	.	.
.	.	.	16r	.
.	.	12f#XJ	.	.
.	.	.	16ccc#XJk	.
4dn	4Dn	8ddL	12ggL	4aaa^
.	.	.	12aa	.
.	.	16r	.	.
.	.	.	12bb-J	.
.	.	16dJk	.	.
4a^	4A^	12aL	8cc#L	4fff#
.	.	12g#	.	.
.	.	.	16r	.
.	.	12f#J	.	.
.	.	.	16ccc#Jk	.
=3	=3	=3	=3	=3
4f#X	4F#X	8ddL	12ggL	4ddd#X
.	.	.	12aa	.
.	.	16r	.	.
.	.	.	12bb-XJ	.
.	.	16dJk	.	.
4d#X	4D#X	12aL	8cc#XL	4aaa^
.	.	12g#X	.	.
.	.	.	16r	.
.	.	12f#XJ	.	.
.	.	.	16ccc#XJk	.
4a^	4A^	8ddL	12ggL	4fff#X
.	.	.	12aa	.
.	.	16r	.	.
.	.	.	12bb-J	.
.	.	16dJk	.	.
4f#	4F#	12aL	8cc#L	4eee
.	.	12g#	.	.
.	.	.	16r	.
.	.	12f#J	.	.
.	.	.	16ccc#Jk	.
!!linebreak:original
=4	=4	=4	=4	=4
!	!	!	!	!LO:TX:a:t=Div.
4d#X	4D#X	4fn^ 4ccn	4ff#X^ 4ddd	4ggg#X^ 4bbbn
*	*	*clefG2	*	*
4d#	4D#	8r	8r	8r
!	!	!LO:TX:a:t=Div.	!LO:TX:a:t=Div.	!
.	.	((8g-X 8een	((8d-X 8g	(8b 8aa
4d#	4D#	8fnL 8ff#X))	8cnL 8a-X))	8ddL 8bb)
.	.	8f 8ff#	8c 8a-	8dd 8bb
4e	4E	8f 8ff#	8c 8a-	8dd 8bb
.	.	((8g-J 8ee	((8d-J 8g	((8bJ 8aa
=5	=5	=5	=5	=5
4d#X	4D#X	8fnL 8ff#X))	8cL 8a-X))	8ddL 8bb))
.	.	8f 8ff#	8c 8a-	8dd 8bb
4d#	4D#	8f 8ff#	8c 8a-	8dd 8bb
.	.	8fJ 8ff#	8cJ 8a-	8ddJ 8bb
4d#	4D#	((4gn 4ee#X	((4dn 4b-X	((4cc#X 4aa
4A	4A	8bn 8ff#))	8f 8dd-X))	8dd 8gg#X))
.	.	((8g-X 8ee#	((8d-X 8b-	((8cc# 8aa
=6	=6	=6	=6	=6
4G#X	4GG#X	4fn 4ff#X))	4c 4a-X))	4dd 4bb))
4G#	4GG#	8r	8r	8r
.	.	((8g-X 8een	((8d-X 8g	((8b 8aa
4G#	4GG#	8fL 8ff#))	8cL 8a-))	8ddL 8bb))
.	.	8f 8ff#	8c 8a-	8dd 8bb
4A	4AA	8f 8ff#	8c 8a-	8dd 8bb
.	.	((8g-J 8ee	((8d-J 8g	((8bJ 8aa
=7	=7	=7	=7	=7
4G#X	4GG#X	8fnL 8ff#X))	8cL 8a-X))	8ddL 8bb))
.	.	8f 8ff#	8c 8a-	8dd 8bb
4G#	4GG#	8f 8ff#	8c 8a-	8dd 8bb
.	.	8fJ 8ff#	8cJ 8a-	8ddJ 8bb
4G#	4GG#	((4gn 4ee#X	((4d 4b-X	((4cc#X 4aa
4Dn	4Dn	8bn 8ff#))	8f 8dd-X))	8dd 8gg#X))
*	*	*clefC3	*	*
.	.	((8D 8Gn	((8B-X 8c#X	((8e#X 8a
=8	=8	=8	=8	=8
4C#X	4CC#X	4C 4Fn))	4A-X 4d))	4f#X 4b))
4C#	4CC#	8r	8r	8r
!	!	!	!	!LO:TX:a:i:t=dim.
.	.	((8D-X 8G-X	((8Gn 8B	((8e#X 8a
4C#	4CC#	8CL 8F))	8A-L 8d))	8f#L 8b))
.	.	8C 8F	8A- 8d	8f# 8b
4D	4CC#	8C 8F	8A- 8d	8f# 8b
.	.	[8D-J [8G-	[8GJ [8B	[8e#J [8a
=	=	=	=	=
*-	*-	*-	*-	*-
!!!system-decoration: s1,s2,s3,s4,s5
